X:1
T:Title
%%score { 1 | 2 }
L:1/8
Q:1/4=110
M:4/4
K:F
V:1 treble nm="Grand Piano"
V:2 bass 
V:1
 A2 A2 B2 A2 | [B,DG]4[K:bass] [F,B,D]4 | [F,C]2[K:treble] [G,C]2 [F,CF]2 [CFA]2 | [CEG]6 z2 | %4
w: J.~B.~Ferguson * * *||||
 A2 A2 B2 A2 | [DG]4 D4 | C2 A2 [FA]2 [EG]2 | F6 c2 | c2 c2 d2 c2 | c4 A2 c2 | d2 c2 B2 A2 | %11
w: |||||||
 G6 z2 | A2 A2 B2 A2 | [DG]4 D4 | C2 A2 [FA]2 [EG]2 | F6 z2 |] %16
w: |||||
V:2
 [F,CF]2 [F,CF]2 [F,DF]2 [F,CF]2 | B,,4 B,,4 | A,,2 B,,2 A,,2 F,,2 | C,6 z2 | %4
 [F,C]2 [F,C]2 [F,D]2 [F,C]2 | [B,,B,]4 [B,,F,B,]4 | [C,F,A,]2 [C,F,C]2 [C,C]2 [C,B,]2 | %7
 [F,A,]6[K:treble] A2 | A2 A2 B2 A2 | A4 F2 A2 | B2 A2 G2 F2 | E6 z2 | %12
 [F,C]2 [F,C]2 [F,D]2 [F,C]2 | [B,,B,]4 [B,,F,B,]4 | [C,F,A,]2 [C,F,C]2 [C,C]2 [C,B,]2 | %15
 [F,A,]6 z2 |] %16

